X: 33948
T: Redesdale
R: hornpipe
M: 4/4
K: Gmajor
Bc|dBFB DFBF|dBAB F2 cd|ecAF EAce|gf=ef d2 Bc
dBFB DFBF|dBAB F2 cd|egec AecA|c2 B2 B2:|
(3fga|bfdb FBdf|bfdf B2 cd|ecAf EAce|gf=ef d2 (3fga|
bfdB fBdf|bfdf B2 cd|ecAF EecA|C2 B2 B2:|

